public/assets/images/icons/tablet/secured-fdic.svg

<svg width="142" height="88" viewBox="0 0 142 88" fill="none" xmlns="http://www.w3.org/2000/svg">
<path d="M1.43998 3.20297C1.87998 3.20297 2.59998 3.40297 3.03998 3.60297C3.75998 4.00297 3.79998 4.52297 3.79998 12.203C3.79998 19.883 3.75998 20.403 3.03998 20.803C2.59998 21.003 1.87998 21.203 1.43998 21.203C0.759976 21.203 0.599976 21.443 0.599976 22.603V24.003H5.79998H11V22.603C11 21.363 10.88 21.203 9.99998 21.203C9.43997 21.203 8.63997 20.843 8.19998 20.403C7.47998 19.683 7.39998 19.083 7.39998 12.923C7.39998 9.24297 7.55998 6.40297 7.71998 6.60297C7.91998 6.84297 9.39997 10.843 11 15.523L13.96 24.043L15.32 23.923L16.68 23.803L19.96 15.083L23.2 6.36297L23.32 13.283C23.44 20.883 23.32 21.203 20.92 21.203C19.92 21.203 19.8 21.323 19.8 22.603V24.003H26H32.2V22.603C32.2 21.283 32.12 21.203 30.88 21.203C30.16 21.203 29.36 21.003 29.08 20.723C28.72 20.363 28.6 17.963 28.6 12.363C28.6 3.80297 28.6 3.84297 30.92 3.36297C32 3.12297 32.2 2.92297 32.2 1.92297V0.762966L26.76 0.882967L21.32 1.00297L18.92 7.60297C17.6 11.243 16.4 14.323 16.24 14.483C16.12 14.643 14.92 11.643 13.6 7.80297L11.2 0.802967H5.91998H0.599976V2.00297C0.599976 2.96297 0.759976 3.20297 1.43998 3.20297Z" fill="white"/>
<path fill-rule="evenodd" clip-rule="evenodd" d="M86.16 3.20078C86.84 3.20078 87.4 3.44078 87.56 3.84078C87.68 4.20078 87.8 8.88078 87.8 14.2408V24.0008H88.96C89.68 24.0008 90.32 23.6808 90.68 23.1208L91.24 22.2808L92.56 23.2408C94.4 24.6008 98.6 24.6408 100.52 23.2808C102.72 21.6808 103.6 19.5208 103.6 15.6008C103.6 11.2808 102.56 9.08078 99.8 7.68078C97.52 6.56078 96.36 6.56078 94.04 7.80078L92.2 8.76078V4.80078V0.800781H88.6H85V2.00078C85 3.04078 85.12 3.20078 86.16 3.20078ZM98.44 19.0008C97.2 21.9208 94.36 22.2408 92.84 19.6408C91.4 17.2008 92.12 11.0008 93.88 10.2408C94.16 10.1608 95.04 10.0808 95.8 10.1208C96.88 10.2008 97.36 10.4808 98.08 11.5608C99.16 13.1608 99.36 16.8008 98.44 19.0008Z" fill="white"/>
<path fill-rule="evenodd" clip-rule="evenodd" d="M34.2 15.6806C34.2 20.0006 36.12 22.8006 39.76 23.8806C43.84 25.0406 47.44 23.8006 48.96 20.6406C50.12 18.2806 50.04 18.0006 48.2 18.0006C47.08 18.0006 46.6 18.1606 46.6 18.5606C46.6 18.8806 46.2 19.6406 45.68 20.2006C44.52 21.5606 42.28 21.7206 40.72 20.5606C39.6 19.7206 38.4 17.0406 38.84 16.3606C38.96 16.1606 41.48 16.0006 44.44 16.0006C50.52 16.0006 50.24 16.2006 49.36 12.5206C48.76 10.2006 46.56 7.84061 44.4 7.24061C42.52 6.72061 41.68 6.72061 39.8 7.28061C36.44 8.24061 34.2 11.6006 34.2 15.6806ZM45 12.4006V13.6406L42.12 13.5206L39.2 13.4006L39.28 12.2006C39.44 9.88061 42.52 8.72061 44.2 10.4006C44.64 10.8406 45 11.7206 45 12.4006Z" fill="white"/>
<path d="M60.92 8.68L59.8 9.76V8.48V7.2H56H52.2V8.4C52.2 9.36 52.36 9.6 53.04 9.6C53.48 9.6 54.2 9.8 54.64 10C55.32 10.4 55.4 10.88 55.4 15.56C55.4 21.12 55.36 21.2 53.16 21.2C52.32 21.2 52.2 21.4 52.2 22.6V24H57.2H62.2V22.6C62.2 21.52 62.04 21.2 61.48 21.2C60.12 21.2 59.8 20.36 59.8 16.56C59.8 13.44 59.92 12.72 60.72 11.56C61.52 10.36 61.84 10.2 63.4 10.2C65.76 10.2 66.2 11.04 66.2 15.92C66.2 20.12 65.84 21.2 64.36 21.2C63.48 21.2 63.36 21.36 63.48 22.48L63.6 23.8H68H72.4L72.52 22.48C72.64 21.44 72.52 21.2 71.92 21.2C70.52 21.2 70.2 20.36 70.2 16.8C70.2 12.88 70.92 10.92 72.7199 10.08C74.32 9.28 75.6399 9.76 76.16 11.24C76.76 13 76.7199 20.12 76.1199 20.72C75.8399 21 75.32 21.2 74.92 21.2C74.36 21.2 74.1999 21.52 74.1999 22.6V24H79H83.7999V22.6C83.7999 21.28 83.7199 21.2 82.4 21.2C80.68 21.2 80.6399 21.08 80.5199 14.32C80.3999 9.6 80.3199 9.2 79.4399 8.24C77.5999 6.28 74 6.48 71.4 8.68L70.16 9.72L69.5599 8.84C68.2799 7.04 65.36 6.32 63 7.24C62.4399 7.48 61.52 8.12 60.92 8.68Z" fill="white"/>
<path fill-rule="evenodd" clip-rule="evenodd" d="M107.08 14.9998C106.84 18.6398 107.4 20.3598 109.4 22.1598C112.8 25.1998 117.92 25.1198 120.8 21.9198C121.56 21.0798 122.2 20.1598 122.2 19.8398C122.2 19.5198 122.32 18.9998 122.44 18.6398C122.64 18.1198 122.4 17.9998 121.12 17.9998C119.76 17.9998 119.52 18.1598 119.12 19.1998C118.84 19.9998 118.16 20.5998 117.28 20.9998C115.04 21.9198 113 20.9998 111.96 18.5198C110.88 15.9598 110.8 15.9998 117.04 15.9998H122.72L122.48 14.1998C121.72 8.83982 117.8 5.95982 112.76 7.19982C109.36 7.99982 107.36 10.7598 107.08 14.9998ZM117.8 12.3998V13.5998H114.8C111.92 13.5998 111.8 13.5598 111.8 12.6398C111.8 12.1198 112.16 11.2398 112.64 10.6398C113.68 9.31982 115.8 9.19982 117 10.3998C117.44 10.8398 117.8 11.7198 117.8 12.3998Z" fill="white"/>
<path d="M133.4 8.6C132.84 9.28 132.8 9.24 132.6 8.36C132.36 7.44 132.2 7.4 128.68 7.28L125 7.16V8.4C125 9.36 125.16 9.6 125.84 9.6C126.28 9.6 127 9.8 127.44 10C128.12 10.4 128.2 10.88 128.2 15.56C128.2 21.12 128.16 21.2 125.96 21.2C125.12 21.2 125 21.4 125 22.6V24H130.4H135.8V22.6C135.8 21.32 135.68 21.2 134.68 21.2C132.88 21.2 132.6 20.56 132.6 16.76C132.6 11.64 133.84 9.16 136.36 9.24C137.04 9.24 137.36 9.36 137.08 9.48C136.08 9.88 135.72 11.6 136.4 12.68C137.32 14.04 139.72 13.84 140.56 12.36C141.44 10.76 140.84 8.56 139.28 7.6C137.8 6.68 136.88 6.64 135.2 7.36C134.52 7.64 133.72 8.2 133.4 8.6Z" fill="white"/>
<path d="M101.12 52.4031C100.2 55.9631 100.2 63.2831 101.16 66.8031C103.2 74.2031 108.2 80.4431 115 83.9631C119.52 86.3231 123.32 87.2031 128.96 87.2031C134.2 87.1631 136.2 86.8431 139.24 85.3231L141.4 84.2831V76.9631V69.6431L137.92 71.3231C134.72 72.8431 134.12 73.0031 130.6 73.1231C127.44 73.2431 126.4 73.1231 124.52 72.4031C121.32 71.2031 118.24 68.3231 116.76 65.1231C115.72 62.8831 115.6 62.1631 115.6 58.8031C115.6 55.5631 115.76 54.6831 116.68 52.7231C118.8 48.1231 122.64 45.2031 127.64 44.3631C131.16 43.7631 133.72 44.2831 138.16 46.4031L141.4 47.9631L141.32 40.7231L141.2 33.4431L138.2 32.4831C135.96 31.7631 134.04 31.5231 130.6 31.4031C128.08 31.3231 125.48 31.3631 124.8 31.4431C113.16 33.3231 104 41.4031 101.12 52.4031Z" fill="white"/>
<path d="M1 87.2031H8.6H16.2V76.6031V66.0031H23.4H30.6V59.8031V53.6031H23.4H16.2V49.2031V44.8031H24H31.8V38.6031V32.4031H16.4H1V59.8031V87.2031Z" fill="white"/>
<path fill-rule="evenodd" clip-rule="evenodd" d="M34.2 87.2833L45.52 87.0833C54.72 86.9233 57.48 86.7233 60.4 86.0833C71.4 83.6833 78.2 77.6433 80.84 68.0033C81.84 64.4033 81.84 55.2433 80.88 51.6033C78.48 42.5633 71.96 36.0033 62.8 33.3233C60.8 32.7633 58.24 32.6033 47.32 32.4833L34.2 32.3633V59.8433V87.2833ZM66.6 59.4033C66.6 65.6833 63.92 70.3633 59.08 72.5233C56.52 73.6833 53.4 74.4033 50.96 74.4033H49.4V59.5633V44.6833L52.92 44.8833C55.64 45.0433 57.04 45.3633 58.96 46.2033C63.92 48.4433 66.6 53.0833 66.6 59.4033Z" fill="white"/>
<path d="M83.4 87.2031H91H98.6V59.8031V32.4031H91H83.4V59.8031V87.2031Z" fill="white"/>
</svg>

<svg width="142" height="88" fill="none" xmlns="http://www.w3.org/2000/svg"><path d="M1.44 3.203c.44 0 1.16.2 1.6.4.72.4.76.92.76 8.6s-.04 8.2-.76 8.6c-.44.2-1.16.4-1.6.4-.68 0-.84.24-.84 1.4v1.4H11v-1.4c0-1.24-.12-1.4-1-1.4-.56 0-1.36-.36-1.8-.8-.72-.72-.8-1.32-.8-7.48 0-3.68.16-6.52.32-6.32.2.24 1.68 4.24 3.28 8.92l2.96 8.52 1.36-.12 1.36-.12 3.28-8.72 3.24-8.72.12 6.92c.12 7.6 0 7.92-2.4 7.92-1 0-1.12.12-1.12 1.4v1.4h12.4v-1.4c0-1.32-.08-1.4-1.32-1.4-.72 0-1.52-.2-1.8-.48-.36-.36-.48-2.76-.48-8.36 0-8.56 0-8.52 2.32-9 1.08-.24 1.28-.44 1.28-1.44V.763l-5.44.12-5.44.12-2.4 6.6c-1.32 3.64-2.52 6.72-2.68 6.88-.12.16-1.32-2.84-2.64-6.68l-2.4-7H.6v1.2c0 .96.16 1.2.84 1.2z" fill="#fff"/><path fill-rule="evenodd" clip-rule="evenodd" d="M86.16 3.2c.68 0 1.24.24 1.4.64.12.36.24 5.04.24 10.4V24h1.16c.72 0 1.36-.32 1.72-.88l.56-.84 1.32.96c1.84 1.36 6.04 1.4 7.96.04 2.2-1.6 3.08-3.76 3.08-7.68 0-4.32-1.04-6.52-3.8-7.92-2.28-1.12-3.44-1.12-5.76.12l-1.84.96V.8H85V2c0 1.04.12 1.2 1.16 1.2zM98.44 19c-1.24 2.92-4.08 3.24-5.6.64-1.44-2.44-.72-8.64 1.04-9.4.28-.08 1.16-.16 1.92-.12 1.08.08 1.56.36 2.28 1.44 1.08 1.6 1.28 5.24.36 7.44zM34.2 15.68c0 4.32 1.92 7.12 5.56 8.2 4.08 1.16 7.68-.08 9.2-3.24 1.16-2.36 1.08-2.64-.76-2.64-1.12 0-1.6.16-1.6.56 0 .32-.4 1.08-.92 1.64-1.16 1.36-3.4 1.52-4.96.36-1.12-.84-2.32-3.52-1.88-4.2.12-.2 2.64-.36 5.6-.36 6.08 0 5.8.2 4.92-3.48-.6-2.32-2.8-4.68-4.96-5.28-1.88-.52-2.72-.52-4.6.04-3.36.96-5.6 4.32-5.6 8.4zM45 12.4v1.24l-2.88-.12-2.92-.12.08-1.2c.16-2.32 3.24-3.48 4.92-1.8.44.44.8 1.32.8 2z" fill="#fff"/><path d="M60.92 8.68L59.8 9.76V7.2h-7.6v1.2c0 .96.16 1.2.84 1.2.44 0 1.16.2 1.6.4.68.4.76.88.76 5.56 0 5.56-.04 5.64-2.24 5.64-.84 0-.96.2-.96 1.4V24h10v-1.4c0-1.08-.16-1.4-.72-1.4-1.36 0-1.68-.84-1.68-4.64 0-3.12.12-3.84.92-5 .8-1.2 1.12-1.36 2.68-1.36 2.36 0 2.8.84 2.8 5.72 0 4.2-.36 5.28-1.84 5.28-.88 0-1 .16-.88 1.28l.12 1.32h8.8l.12-1.32c.12-1.04 0-1.28-.6-1.28-1.4 0-1.72-.84-1.72-4.4 0-3.92.72-5.88 2.52-6.72 1.6-.8 2.92-.32 3.44 1.16.6 1.76.56 8.88-.04 9.48-.28.28-.8.48-1.2.48-.56 0-.72.32-.72 1.4V24h9.6v-1.4c0-1.32-.08-1.4-1.4-1.4-1.72 0-1.76-.12-1.88-6.88-.12-4.72-.2-5.12-1.08-6.08-1.84-1.96-5.44-1.76-8.04.44l-1.24 1.04-.6-.88c-1.28-1.8-4.2-2.52-6.56-1.6-.56.24-1.48.88-2.08 1.44z" fill="#fff"/><path fill-rule="evenodd" clip-rule="evenodd" d="M107.08 15c-.24 3.64.32 5.36 2.32 7.16 3.4 3.04 8.52 2.96 11.4-.24.76-.84 1.4-1.76 1.4-2.08 0-.32.12-.84.24-1.2.2-.52-.04-.64-1.32-.64-1.36 0-1.6.16-2 1.2-.28.8-.96 1.4-1.84 1.8-2.24.92-4.28 0-5.32-2.48-1.08-2.56-1.16-2.52 5.08-2.52h5.68l-.24-1.8c-.76-5.36-4.68-8.24-9.72-7-3.4.8-5.4 3.56-5.68 7.8zm10.72-2.6v1.2h-3c-2.88 0-3-.04-3-.96 0-.52.36-1.4.84-2 1.04-1.32 3.16-1.44 4.36-.24.44.44.8 1.32.8 2z" fill="#fff"/><path d="M133.4 8.6c-.56.68-.6.64-.8-.24-.24-.92-.4-.96-3.92-1.08L125 7.16V8.4c0 .96.16 1.2.84 1.2.44 0 1.16.2 1.6.4.68.4.76.88.76 5.56 0 5.56-.04 5.64-2.24 5.64-.84 0-.96.2-.96 1.4V24h10.8v-1.4c0-1.28-.12-1.4-1.12-1.4-1.8 0-2.08-.64-2.08-4.44 0-5.12 1.24-7.6 3.76-7.52.68 0 1 .12.72.24-1 .4-1.36 2.12-.68 3.2.92 1.36 3.32 1.16 4.16-.32.88-1.6.28-3.8-1.28-4.76-1.48-.92-2.4-.96-4.08-.24-.68.28-1.48.84-1.8 1.24zM101.12 52.403c-.92 3.56-.92 10.88.04 14.4 2.04 7.4 7.04 13.64 13.84 17.16 4.52 2.36 8.32 3.24 13.96 3.24 5.24-.04 7.24-.36 10.28-1.88l2.16-1.04v-14.64l-3.48 1.68c-3.2 1.52-3.8 1.68-7.32 1.8-3.16.12-4.2 0-6.08-.72-3.2-1.2-6.28-4.08-7.76-7.28-1.04-2.24-1.16-2.96-1.16-6.32 0-3.24.16-4.12 1.08-6.08 2.12-4.6 5.96-7.52 10.96-8.36 3.52-.6 6.08-.08 10.52 2.04l3.24 1.56-.08-7.24-.12-7.28-3-.96c-2.24-.72-4.16-.96-7.6-1.08-2.52-.08-5.12-.04-5.8.04-11.64 1.88-20.8 9.96-23.68 20.96zM1 87.203h15.2v-21.2h14.4v-12.4H16.2v-8.8h15.6v-12.4H1v54.8z" fill="#fff"/><path fill-rule="evenodd" clip-rule="evenodd" d="M34.2 87.283l11.32-.2c9.2-.16 11.96-.36 14.88-1 11-2.4 17.8-8.44 20.44-18.08 1-3.6 1-12.76.04-16.4-2.4-9.04-8.92-15.6-18.08-18.28-2-.56-4.56-.72-15.48-.84l-13.12-.12v54.92zm32.4-27.88c0 6.28-2.68 10.96-7.52 13.12-2.56 1.16-5.68 1.88-8.12 1.88H49.4v-29.72l3.52.2c2.72.16 4.12.48 6.04 1.32 4.96 2.24 7.64 6.88 7.64 13.2z" fill="#fff"/><path d="M83.4 87.203h15.2v-54.8H83.4v54.8z" fill="#fff"/></svg>
